packages/foundations/assets/icons/functional/images/communication/speech_bubble_exclamation_mark_20.svg

<svg width="20" height="20" viewBox="0 0 20 20" fill="none" xmlns="http://www.w3.org/2000/svg">
<g clip-path="url(#clip0_185_492)">
<path fill-rule="evenodd" clip-rule="evenodd" d="M15.4117 2C16.9215 2 18 3.13216 18 4.49859V12.5019C18 13.8683 16.8823 15.0005 15.4902 15.0005H6.84319C6.54904 15.0005 6.29415 15.0785 6.11766 15.2737L3.70595 17.7137C3.07851 18.3384 2 17.8699 2 16.9915V4.49859C2 3.13216 3.13734 2 4.52946 2H15.4117ZM16 4H4V14.6L4.72662 13.9155C5.25696 13.407 5.94436 13.0392 6.67098 13H16V4ZM8.925 11.0932C8.925 11.7178 9.43479 12.1863 10.0231 12.1863C10.6113 12.1863 11.1211 11.7178 11.1211 11.0932C11.1211 10.5075 10.6113 10 10.0231 10C9.43479 10 8.925 10.5075 8.925 11.0932ZM9 9.00164V5H11V9.00164H9Z" fill="#1A1C1F"/>
</g>
<defs>
<clipPath id="clip0_185_492">
<rect width="20" height="20" fill="white"/>
</clipPath>
</defs>
</svg>

<svg xmlns="http://www.w3.org/2000/svg" width="20" height="20" fill="none"><g clip-path="url(#a)"><path fill="#1A1C1F" fill-rule="evenodd" d="M15.412 2C16.922 2 18 3.132 18 4.499v8.003A2.51 2.51 0 0 1 15.49 15H6.843c-.294 0-.549.078-.725.273l-2.412 2.44C3.079 18.338 2 17.87 2 16.99V4.5C2 3.132 3.137 2 4.53 2zM16 4H4v10.6l.727-.684c.53-.509 1.217-.877 1.944-.916H16zm-7.075 7.093c0 .625.51 1.093 1.098 1.093s1.098-.468 1.098-1.093A1.12 1.12 0 0 0 10.023 10c-.588 0-1.098.508-1.098 1.093M9 9.002V5h2v4.002z" clip-rule="evenodd"/></g><defs><clipPath id="a"><path fill="#fff" d="M0 0h20v20H0z"/></clipPath></defs></svg>
